!!!OTL: BRUEDER LASST UNS LUSTIG SEIN
!!!ARE: Europa, Mitteleuropa, Deutschland
!!!SCT: E1688B
!!!YEM: Copyright 1995, estate of Helmut Schaffrath.
**kern
*ICvox
*Ivox
*M3/4
*k[f#c#]
*D:
=1
{8.d
16A
4.A
8d
=2
8B
8B
2B}
=3
{8.c#
16d
4e
4c#
=4
4d
4D
4r}
=5
{8.d
16A
4.A
8d
=6
8B
8B
2B}
=7
{8.c#
16d
4e
4c#
=8
4d
4D
4r}
=9
{8.c#
16d
4e
4e
=10
8.f#
16d
2e}
=11
{8.c#
16d
4e
4e
=12
8.f#
16d
2e}
=13
{8.d
16c#
4B
8g
8e
=14
8d
8c#
2d}
==
!!!AGN: Staende -, Studenten - Lied
!!!ONB: ESAC (Essen Associative Code) Database: ERK3
!!!AMT: simple triple
!!!AIN: vox
!!!EED: Helmut Schaffrath
!!!EEV: 1.0
*-
